X:28
T:Eryri Wen
M:C
L:1/4
Q:100
C:Trad. arr. J.T.
R:Slow air
N:Compressed arrangement
K:G
E/2F/2 | G E F ^D | E B B c | B G F>B | E3 G/2A/2 | B G A F | G =D E>c |
B G B/2A/2 G/2F/2 | G3 d/2c/2 | B d G d/2c/2 | B d G F/2F/2 | E G F E |
E ^D2 B/2A/2 | G E F =D | E B c>c | B G F G/2F/2 | E4 ||
